X:1
T:Charleville Lasses, The
M:C|
L:1/8
R:Reel
K:G
D|G2 ge dBAG|FDAD BDAD|G2 ge dBAG|DFAc BGG:|
|:d|gedc BcdB|Aaag aeef|gedc BcdB|Ggga big:|]

